assets/icons/emote/wink.svg

<?xml version="1.0" encoding="UTF-8" standalone="no"?>
<svg viewBox="0 0 24 24" width="24" height="24" version="1.1" id="svg835" sodipodi:docname="wink.svg" inkscape:version="1.1 (ce6663b3b7, 2021-05-25)"
   xmlns:inkscape="http://www.inkscape.org/namespaces/inkscape"
   xmlns:sodipodi="http://sodipodi.sourceforge.net/DTD/sodipodi-0.dtd"
   xmlns="http://www.w3.org/2000/svg"
   xmlns:svg="http://www.w3.org/2000/svg"
   xmlns:rdf="http://www.w3.org/1999/02/22-rdf-syntax-ns#"
   xmlns:cc="http://creativecommons.org/ns#"
   xmlns:dc="http://purl.org/dc/elements/1.1/">
   <metadata id="metadata841">
      <rdf:RDF>
         <cc:Work rdf:about="">
            <dc:format>image/svg+xml</dc:format>
            <dc:type rdf:resource="http://purl.org/dc/dcmitype/StillImage" />
         </cc:Work>
      </rdf:RDF>
   </metadata>
   <defs id="defs839" />
   <sodipodi:namedview pagecolor="#ffffff" bordercolor="#666666" borderopacity="1" objecttolerance="10" gridtolerance="10" guidetolerance="10" inkscape:pageopacity="0" inkscape:pageshadow="2" inkscape:window-width="1920" inkscape:window-height="1016" id="namedview837" showgrid="true" inkscape:zoom="13.75" inkscape:cx="-1.5636364" inkscape:cy="4.9818182" inkscape:window-x="0" inkscape:window-y="27" inkscape:window-maximized="1" inkscape:current-layer="svg835" inkscape:pagecheckerboard="0">
      <inkscape:grid type="xygrid" id="grid1436" />
   </sodipodi:namedview>
   <path id="path987" style="display:inline;fill:#808080;fill-opacity:1;stroke:none;stroke-width:1" d="m 6.3749997,13.875014 v 0.78125 c 0,0.1078 0.043951,0.307096 0.112305,0.53711 2.2640443,1.507263 8.4523183,1.531236 10.8959953,0.07569 0.12784,-0.337685 0.19876,-0.614741 0.207519,-0.72998 l 0.03417,-0.664062 c -2.29255,1.629312 -9.007008,1.629312 -11.249999,0 z" />
   <path style="display:inline;fill:#808080;fill-opacity:1;stroke:none;stroke-width:1" d="m 8.835937,7.6054837 c 0.6979124,0 1.289062,0.59115 1.289062,1.2890624 v 1.2109379 c 0,0.697912 -0.5911496,1.249999 -1.289062,1.249999 -0.6979124,0 -1.2499999,-0.552087 -1.2499999,-1.249999 v -1.2109379 c 0,-0.6979124 0.5520875,-1.2890624 1.2499999,-1.2890624 z" id="path983" />
   <path id="path993" style="fill:#808080;fill-opacity:1;fill-rule:evenodd;stroke:none;stroke-width:0.75;stroke-linecap:square;stroke-linejoin:round;stroke-opacity:1" d="m 11.953614,2.6250152 a 9.3749993,9.3749993 0 0 0 -9.328614,9.3749988 9.3749993,9.3749993 0 0 0 9.375,9.374999 9.3749993,9.3749993 0 0 0 9.375,-9.374999 9.3749993,9.3749993 0 0 0 -9.375,-9.3749988 9.3749993,9.3749993 0 0 0 -0.04639,0 z m 0.04639,1.2499999 a 8.1249994,8.1249994 0 0 1 8.124999,8.1249989 8.1249994,8.1249994 0 0 1 -8.124999,8.124999 8.1249994,8.1249994 0 0 1 -8.1250004,-8.124999 8.1249994,8.1249994 0 0 1 8.1250004,-8.1249989 z" />
   <rect style="fill:#808080;fill-rule:evenodd;stroke-width:1;stroke-linecap:square" id="rect1438" width="3.7499998" height="1.2499999" x="13.124999" y="8.8750143" rx="1" ry="1" />
</svg>

<svg width="24" height="24" xmlns="http://www.w3.org/2000/svg"><path style="display:inline;fill:gray;fill-opacity:1;stroke:none;stroke-width:1" d="M6.375 13.875v.781c0 .108.044.307.112.537 2.264 1.508 8.453 1.532 10.896.076.128-.338.2-.615.208-.73l.034-.664c-2.293 1.63-9.007 1.63-11.25 0zm2.461-6.27c.698 0 1.289.592 1.289 1.29v1.21c0 .698-.591 1.25-1.29 1.25a1.24 1.24 0 0 1-1.25-1.25v-1.21c0-.698.553-1.29 1.25-1.29z"/><path style="fill:gray;fill-opacity:1;stroke:none;stroke-width:.75;stroke-linecap:square;stroke-linejoin:round;stroke-opacity:1" d="M11.954 2.625A9.375 9.375 0 0 0 2.625 12 9.375 9.375 0 0 0 12 21.375 9.375 9.375 0 0 0 21.375 12 9.375 9.375 0 0 0 12 2.625a9.375 9.375 0 0 0-.046 0zM12 3.875A8.125 8.125 0 0 1 20.125 12 8.125 8.125 0 0 1 12 20.125 8.125 8.125 0 0 1 3.875 12 8.125 8.125 0 0 1 12 3.875z"/><rect style="fill:gray;stroke-width:1;stroke-linecap:square" width="3.75" height="1.25" x="13.125" y="8.875" rx="1" ry="1"/></svg>
